X: 1
T: Planxty Be\'abhor Cle\'abhor
T: Theme from Leave it to Beaver
R: jig
Z: John Chambers <jc:trillian.mit.edu>
M: 6/8
L: 1/8
K: C
B \
| "C"c2e ged | "Dm"d2f "G7"a2g | "C"Bcc' "Am"a2f | "Dm"d3- "G7"d2G \
| "C"c2e ged | "Dm"d2f "G7"a2g | "C"^fgc' "G7"a=fB | "C"c3- "fine"c2 :|
|: e \
| "E7"efe ded | cdc BcB | "Am"A^AB cd^d | e3- e2e \
| "D7"ded cdc | BcB ABA | "G7"G2F G2F | G3 "d.C."G2 |]
